X: 532
T: Dry and Dusty
C:Kenny Baker's version
B: jims roots
M:C|
L:1/8
Q: 1/4=100
K:E
V:1 
|:[Be][ce]| "E"e2 eg (3fgf ef | gef(g g)A[Be][ce] | e2 eg (3fgf ef |
yg2 b4 Bc | e2eg (3fgf eg | b2(3gbg e2 Bc | e2c2 "B"(3BcB G2 | "E"(3FGF E4 :|
|:"E"B,2| C2 (E2 E)EFE | G[B2e][ce][B3e] A | BcBG "B"(3FGF EG | "E"F2E4 :|
% abcbook-tune_id 6298c2454adf97b8b4c6a0b0


% abcbook-boost 0
% abcbook-tablature 
% abcbook-transpose 
% abcbook-lastupdated 1654178374067
% abcbook-soundfonts 
% abcbook-repeats 1


